!!!!SEGMENT: pl-cz--iii-554--001-012_raszek-waclaw--missa-ex-c-agnus-dei.krn
!!!cenid: 17xx:1033
!!!COM: Raszek, Wacław
!!!COM-rismID: pe30020314
!!!CDT: <1848->1848
!!!CNT:
!!!OPR: Missa ex C
!!!OTL: Agnus Dei
!!!OMV: 012
!!!PDT: 1780
!!!AGN: Sacred; Mass
!!!SMS-siglum: PL-CZ
!!!SMS-shelfmark: III-554
!!!SMS-shelfwork: 001-012 M
!!!SMS-variant:
!!!SMS-altvar:
!!!NIFC-rismSourceID: 300001043
!!!NIFC-rismChildID: 300001043
!!!NIFC-islandoraID: pl-cz:38848
!!!URL-pdf-islandora: https://repozytorium.nifc.pl/islandora/object/pl-cz%3A38848/datastream/PDF/view
!!!URL-scan:
!!!ONB-nifc: UWAGA: części Mszy: Kyrie, Gloria, Laudamus, Qui tollis, Quoniam, Cum sancto spiritu, Credo, Et incarnatus, Et resurrexit, Sanctus, Benedictus, Agnus Dei, Dona nobis
!!!AIN: 1 alto 1 bass 1 cbass 2 cor 2 oboe 1 soprn 1 tenor 1 viola 2 violn
!!!key: a
**kern	**dynam	**kern	**dynam	**kern	**dynam	**kern	**dynam	**kern	**text	**dynam	**kern	**text	**dynam	**kern	**text	**kern	**text	**dynam	**kern	**dynam	**kern	**kern	**dynam	**kern	**dynam
*group4	*	*group4	*	*group4	*	*group4	*	*group3	*	*	*group3	*	*	*group3	*	*group3	*	*	*group2	*	*group2	*group1	*	*group1	*
*part12	*part12	*part11	*part11	*part10	*part10	*part9	*part9	*part8	*part8	*part8	*part7	*part7	*part7	*part6	*part6	*part5	*part5	*part5	*part4	*part4	*part3	*part2	*part2	*part1	*part1
*staff12	*	*staff11	*	*staff10	*	*staff9	*	*staff8	*	*	*staff7	*	*	*staff6	*	*staff5	*	*	*staff4	*	*staff3	*staff2	*	*staff1	*
*I"Violone	*	*I"Viola di Alto. oblig.	*	*I"Violino 2do.	*	*I"Violino I.mo	*	*I"Basſo.	*	*	*I"Tenore.	*	*	*I"Alto.	*	*I"Canto.	*	*	*I"Clarino 2.do Ex C.	*	*I"Clarino 1.mo Ex C.	*I"Oboe Secundo	*	*I"Oboe Primo	*
*I'vlne	*	*I'vla	*	*I'vl 2	*	*I'vl 1	*	*I'B	*	*	*I'T	*	*	*I'A	*	*I'S	*	*	*I'clno 2 in C	*	*I'clno 1 in C	*I'ob 2	*	*I'ob 1	*
*Icbass	*	*Iviola	*	*Ivioln	*	*Ivioln	*	*Ibass	*	*	*Itenor	*	*	*Ialto	*	*Isoprn	*	*	*Icor	*	*Icor	*Ioboe	*	*Ioboe	*
*ICstr	*	*ICstr	*	*ICstr	*	*ICstr	*	*ICvox	*	*	*ICvox	*	*	*ICvox	*	*ICvox	*	*	*ICbras	*	*ICbras	*ICww	*	*ICww	*
*clefF4	*	*clefC3	*	*clefG2	*	*clefG2	*	*clefF4	*	*	*clefC4	*	*	*clefC3	*	*clefC1	*	*	*clefG2	*	*clefG2	*clefG2	*	*clefG2	*
*ITrd8c12	*	*	*	*	*	*	*	*	*	*	*	*	*	*	*	*	*	*	*	*	*	*	*	*	*
*k[]	*	*k[]	*	*k[]	*	*k[]	*	*k[]	*	*	*k[]	*	*	*k[]	*	*k[]	*	*	*k[]	*	*k[]	*k[]	*	*k[]	*
*a:	*	*a:	*	*a:	*	*a:	*	*a:	*	*	*a:	*	*	*a:	*	*a:	*	*	*a:	*	*a:	*a:	*	*a:	*
*M3/4	*	*M3/4	*	*M3/4	*	*M3/4	*	*M3/4	*	*	*M3/4	*	*	*M3/4	*	*M3/4	*	*	*M3/4	*	*M3/4	*M3/4	*	*M3/4	*
*all\right	*	*all\right	*	*all\right	*	*all\right	*	*all\right	*	*	*all\right	*	*	*all\right	*	*all\right	*	*	*all\right	*	*all\right	*all\right	*	*all\right	*
*2\right	*	*2\right	*	*2\right	*	*2\right	*	*2\right	*	*	*2\right	*	*	*2\right	*	*2\right	*	*	*2\right	*	*2\right	*2\right	*	*2\right	*
=1	=1	=1	=1	=1	=1	=1	=1	=1	=1	=1	=1	=1	=1	=1	=1	=1	=1	=1	=1	=1	=1	=1	=1	=1	=1
!LO:TX:i:a:t=Ada&colon;	!	!	!	!	!	!	!	!LO:TX:i:a:t=Solo.	!	!	!LO:TX:a:t=18 Pauſ	!	!	!	!	!LO:TX:a:t=T.	!	!	!LO:TX:i:a:t=Ada&colon;	!	!LO:TX:i:a:t=Ex C.	!LO:TX:i:a:t=Adag.	!	!LO:TX:i:a:t=Ada&colon;	!
!LO:TX:a:t=S.	!	!LO:TX:i:a:t=Ada.	!LO:DY:a:t=p.	!LO:TX:i:a:t=Ad.	!	!LO:TX:i:a:t=Ad.	!	!LO:TX:i:a:t=Ada&colon;	!	!	!LO:TX:i:a:t=Ada&colon;	!	!	!LO:TX:a:t=18	!	!LO:TX:i:a:t=Ada.	!	!	!LO:TX:a:t=18	!	!LO:TX:a:t=18	!LO:TX:a:t=18	!	!LO:TX:a:t=18	!
!	!	!	!	!	!	!	!	!	!	!	!	!	!	!LO:TX:i:a:t=Ada.	!	!	!	!	!LO:TX:i:a:t=Ex C.	!	!	!	!	!	!
4AAA/	.	4A/	p	2.r	.	2.r	.	4r	.	.	2.r	.	.	2.r	.	2.r	.	.	2.r	.	2.r	2.r	.	2.r	.
4r	.	4r	.	.	.	.	.	8e\L	A-	.	.	.	.	.	.	.	.	.	.	.	.	.	.	.	.
.	.	.	.	.	.	.	.	8c\J	.	.	.	.	.	.	.	.	.	.	.	.	.	.	.	.	.
4AA\	.	4A/	.	.	.	.	.	8B\L	-gnus	.	.	.	.	.	.	.	.	.	.	.	.	.	.	.	.
.	.	.	.	.	.	.	.	8A\J	.	.	.	.	.	.	.	.	.	.	.	.	.	.	.	.	.
=2	=2	=2	=2	=2	=2	=2	=2	=2	=2	=2	=2	=2	=2	=2	=2	=2	=2	=2	=2	=2	=2	=2	=2	=2	=2
4BB\	.	4B/	.	2.r	.	2.r	.	8G#X\L	De-	.	2.r	.	.	2.r	.	2.r	.	.	2.r	.	2.r	2.r	.	2.r	.
.	.	.	.	.	.	.	.	16A\L	.	.	.	.	.	.	.	.	.	.	.	.	.	.	.	.	.
.	.	.	.	.	.	.	.	16B\JJ	.	.	.	.	.	.	.	.	.	.	.	.	.	.	.	.	.
8C\L	.	8c/L	.	.	.	.	.	4A\	-i	.	.	.	.	.	.	.	.	.	.	.	.	.	.	.	.
8BB\	.	8B/	.	.	.	.	.	.	.	.	.	.	.	.	.	.	.	.	.	.	.	.	.	.	.
8C\	.	8c/	.	.	.	.	.	8r	.	.	.	.	.	.	.	.	.	.	.	.	.	.	.	.	.
8AA\J	.	8A/J	.	.	.	.	.	8c\	qui	.	.	.	.	.	.	.	.	.	.	.	.	.	.	.	.
=3	=3	=3	=3	=3	=3	=3	=3	=3	=3	=3	=3	=3	=3	=3	=3	=3	=3	=3	=3	=3	=3	=3	=3	=3	=3
*tremolo	*	*tremolo	*	*	*	*	*	*	*	*	*	*	*	*	*	*	*	*	*	*	*	*	*	*	*
!	!	!	!	!	!LO:DY:a:t=p&colon;	!	!LO:DY:a	!	!	!	!	!	!	!	!	!	!	!	!	!	!	!	!	!	!
8GG#X\L	.	8G#X/L	.	8b/L	p	8ee\L	p	4B\	tol-	.	2.r	.	.	2.r	.	2.r	.	.	2.r	.	2.r	2.r	.	2.r	.
8GG#\	.	8G#/	.	8b/	.	8ee\	.	.	.	.	.	.	.	.	.	.	.	.	.	.	.	.	.	.	.
8GG#\	.	8G#/	.	8b/	.	8ee\	.	4e\	-lis	.	.	.	.	.	.	.	.	.	.	.	.	.	.	.	.
8GG#\	.	8G#/	.	8b/	.	8ee\	.	.	.	.	.	.	.	.	.	.	.	.	.	.	.	.	.	.	.
8GG#\	.	8G#/	.	8b/	.	8ee\	.	4d\	pec-	.	.	.	.	.	.	.	.	.	.	.	.	.	.	.	.
8GG#\J	.	8G#/J	.	8b/J	.	8ee\J	.	.	.	.	.	.	.	.	.	.	.	.	.	.	.	.	.	.	.
=4	=4	=4	=4	=4	=4	=4	=4	=4	=4	=4	=4	=4	=4	=4	=4	=4	=4	=4	=4	=4	=4	=4	=4	=4	=4
*	*	*	*	*	*	*tremolo	*	*	*	*	*	*	*	*	*	*	*	*	*	*	*	*	*	*	*
8AA\L	.	8A/L	.	8e/L	.	8ee\L	.	2.c#X\	-ca-	.	2.r	.	.	2.r	.	2.r	.	.	2.r	.	2.r	2.r	.	2.r	.
8AA\	.	8A/	.	8e/	.	8ee\	.	.	.	.	.	.	.	.	.	.	.	.	.	.	.	.	.	.	.
8AA\	.	8A/	.	8a/	.	8ee\	.	.	.	.	.	.	.	.	.	.	.	.	.	.	.	.	.	.	.
8AA\	.	8A/	.	8a/	.	8ee\	.	.	.	.	.	.	.	.	.	.	.	.	.	.	.	.	.	.	.
8AA\	.	8A/	.	8g/	.	8ee\	.	.	.	.	.	.	.	.	.	.	.	.	.	.	.	.	.	.	.
8AA\J	.	8A/J	.	8g/J	.	8ee\J	.	.	.	.	.	.	.	.	.	.	.	.	.	.	.	.	.	.	.
*	*	*	*	*	*	*Xtremolo	*	*	*	*	*	*	*	*	*	*	*	*	*	*	*	*	*	*	*
=5	=5	=5	=5	=5	=5	=5	=5	=5	=5	=5	=5	=5	=5	=5	=5	=5	=5	=5	=5	=5	=5	=5	=5	=5	=5
8DD\L	.	8d\L	.	8f/L	.	8ff\L	.	8d\	-ta	.	2.r	.	.	2.r	.	2.r	.	.	2.r	.	2.r	2.r	.	2.r	.
8DD\	.	8d\	.	8f/	.	8ff\	.	8A\	pec-	.	.	.	.	.	.	.	.	.	.	.	.	.	.	.	.
8DD\	.	8d\	.	8a/	.	8dd\	.	4d\	-ca-	.	.	.	.	.	.	.	.	.	.	.	.	.	.	.	.
8DD\	.	8d\	.	8a/	.	8dd\	.	.	.	.	.	.	.	.	.	.	.	.	.	.	.	.	.	.	.
!	!	!	!	!	!	!	!	!LO:LB:g=original	!	!	!	!	!	!	!	!	!	!	!	!	!	!	!	!	!
8DD\	.	8d\	.	8a/	.	8dd\	.	4c\	-ta	.	.	.	.	.	.	.	.	.	.	.	.	.	.	.	.
8DD\J	.	8d\J	.	8a/J	.	8dd\J	.	.	.	.	.	.	.	.	.	.	.	.	.	.	.	.	.	.	.
=6	=6	=6	=6	=6	=6	=6	=6	=6	=6	=6	=6	=6	=6	=6	=6	=6	=6	=6	=6	=6	=6	=6	=6	=6	=6
*	*	*	*	*	*	*tremolo	*	*	*	*	*	*	*	*	*	*	*	*	*	*	*	*	*	*	*
8GG\L	.	8G/L	.	8d/L	.	8dd\L	.	2.B\	mun-	.	2.r	.	.	2.r	.	2.r	.	.	2.r	.	2.r	2.r	.	2.r	.
8GG\	.	8G/	.	8d/	.	8dd\	.	.	.	.	.	.	.	.	.	.	.	.	.	.	.	.	.	.	.
8GG\	.	8G/	.	8g/	.	8dd\	.	.	.	.	.	.	.	.	.	.	.	.	.	.	.	.	.	.	.
8GG\	.	8G/	.	8g/	.	8dd\	.	.	.	.	.	.	.	.	.	.	.	.	.	.	.	.	.	.	.
8GG\	.	8G/	.	8f/	.	8dd\	.	.	.	.	.	.	.	.	.	.	.	.	.	.	.	.	.	.	.
8GG\J	.	8G/J	.	8f/J	.	8dd\J	.	.	.	.	.	.	.	.	.	.	.	.	.	.	.	.	.	.	.
*Xtremolo	*	*Xtremolo	*	*	*	*Xtremolo	*	*	*	*	*	*	*	*	*	*	*	*	*	*	*	*	*	*	*
=7	=7	=7	=7	=7	=7	=7	=7	=7	=7	=7	=7	=7	=7	=7	=7	=7	=7	=7	=7	=7	=7	=7	=7	=7	=7
8CC/L	.	8c\L	.	4e/	.	8ee\L	.	8c\	-di	.	2.r	.	.	2.r	.	2.r	.	.	2.r	.	2.r	2.r	.	2.r	.
8CC/	.	8c\	.	.	.	8ee\	.	8c\	pec-	.	.	.	.	.	.	.	.	.	.	.	.	.	.	.	.
8DD/	.	8d\	.	4r	.	8dd\	.	4B\	-ca-	.	.	.	.	.	.	.	.	.	.	.	.	.	.	.	.
8DD/	.	8d\	.	.	.	8dd\	.	.	.	.	.	.	.	.	.	.	.	.	.	.	.	.	.	.	.
8DD#X/	.	8d#X\	.	4f#X/	.	8cc\	.	4A\	-ta	.	.	.	.	.	.	.	.	.	.	.	.	.	.	.	.
8DD#/J	.	8d#\J	.	.	.	8cc\J	.	.	.	.	.	.	.	.	.	.	.	.	.	.	.	.	.	.	.
=8	=8	=8	=8	=8	=8	=8	=8	=8	=8	=8	=8	=8	=8	=8	=8	=8	=8	=8	=8	=8	=8	=8	=8	=8	=8
4EE\	.	4e\	.	4e/	.	4cc\	.	4A\	mun-	.	2.r	.	.	2.r	.	2.r	.	.	2.r	.	2.r	2.r	.	2.r	.
!	!	!	!	!LO:TX:t=P:problem=mixed beam	!	!	!	!	!	!	!	!	!	!	!	!	!	!	!	!	!	!	!	!	!
4EE\	.	4e\	.	8e/L	.	8b\L	.	4G#X\	-di	.	.	.	.	.	.	.	.	.	.	.	.	.	.	.	.
.	.	.	.	8ee\	.	8ee\	.	.	.	.	.	.	.	.	.	.	.	.	.	.	.	.	.	.	.
4r	.	4r	.	8b\	.	8b\	.	4r	.	.	.	.	.	.	.	.	.	.	.	.	.	.	.	.	.
.	.	.	.	8g#X\J	.	8g#X\J	.	.	.	.	.	.	.	.	.	.	.	.	.	.	.	.	.	.	.
=9	=9	=9	=9	=9	=9	=9	=9	=9	=9	=9	=9	=9	=9	=9	=9	=9	=9	=9	=9	=9	=9	=9	=9	=9	=9
4EE\	.	4e\	.	4e/	.	4e/	.	4r	.	.	2.r	.	.	2.r	.	2.r	.	.	2.r	.	2.r	2.r	.	2.r	.
4r	.	4r	.	4r	.	4r	.	8E\L	mi-	.	.	.	.	.	.	.	.	.	.	.	.	.	.	.	.
.	.	.	.	.	.	.	.	8F#X\J	.	.	.	.	.	.	.	.	.	.	.	.	.	.	.	.	.
*	*	*	*	*custos:g#	*	*	*	*	*	*	*	*	*	*	*	*	*	*	*	*	*	*	*	*	*
4r	.	4r	.	4r	.	4r	.	8G#X\L	-ſe-	.	.	.	.	.	.	.	.	.	.	.	.	.	.	.	.
.	.	.	.	.	.	.	.	8A\J	.	.	.	.	.	.	.	.	.	.	.	.	.	.	.	.	.
!	!	!	!	!LO:LB:g=original	!	!LO:LB:g=original	!	!	!	!	!	!	!	!	!	!	!	!	!	!	!	!	!	!	!
=10	=10	=10	=10	=10	=10	=10	=10	=10	=10	=10	=10	=10	=10	=10	=10	=10	=10	=10	=10	=10	=10	=10	=10	=10	=10
4EE\	.	4e\	.	4g#X/	.	4b\	.	8B\L	-re-	.	2.r	.	.	2.r	.	2.r	.	.	2.r	.	2.r	2.r	.	2.r	.
.	.	.	.	.	.	.	.	8A\	.	.	.	.	.	.	.	.	.	.	.	.	.	.	.	.	.
!	!	!	!	!	!	!	!	!LO:SIC:v:s=8G#\	!	!	!	!	!	!	!	!	!	!	!	!	!	!	!	!	!
4r	.	4r	.	4r	.	4r	.	8G\	.	.	.	.	.	.	.	.	.	.	.	.	.	.	.	.	.
.	.	.	.	.	.	.	.	8A\	.	.	.	.	.	.	.	.	.	.	.	.	.	.	.	.	.
4r	.	4r	.	4r	.	4r	.	8B\	.	.	.	.	.	.	.	.	.	.	.	.	.	.	.	.	.
.	.	.	.	.	.	.	.	8c\J	.	.	.	.	.	.	.	.	.	.	.	.	.	.	.	.	.
=11	=11	=11	=11	=11	=11	=11	=11	=11	=11	=11	=11	=11	=11	=11	=11	=11	=11	=11	=11	=11	=11	=11	=11	=11	=11
!	!	!	!	!LO:SIC:v:s=8g#/L	!	!	!	!	!	!	!	!	!	!	!	!	!	!	!	!	!	!	!	!	!
8EE\L	.	8e\L	.	8g/L	.	8dd\L	.	2.d\	.	.	2.r	.	.	2.r	.	2.r	.	.	2.r	.	2.r	2.r	.	2.r	.
!	!	!	!	!LO:SIC:v:s=8g#/	!	!	!	!	!	!	!	!	!	!	!	!	!	!	!	!	!	!	!	!	!
8EE\	.	8e\	.	8g/	.	8dd\	.	.	.	.	.	.	.	.	.	.	.	.	.	.	.	.	.	.	.
8FF#X\	.	8f#X\	.	8a/	.	8dd\	.	.	.	.	.	.	.	.	.	.	.	.	.	.	.	.	.	.	.
8FF#\J	.	8f#\	.	8a/	.	8dd\	.	.	.	.	.	.	.	.	.	.	.	.	.	.	.	.	.	.	.
!LO:LB:g=original	!	!	!	!	!	!	!	!	!	!	!	!	!	!	!	!	!	!	!	!	!	!	!	!	!
8GG#X\L	.	8g#X\	.	8b/	.	8dd\	.	.	.	.	.	.	.	.	.	.	.	.	.	.	.	.	.	.	.
*	*	*custos:a	*	*	*	*	*	*	*	*	*	*	*	*	*	*	*	*	*	*	*	*	*	*	*
8GG#\J	.	8g#\J	.	8b/J	.	8dd\J	.	.	.	.	.	.	.	.	.	.	.	.	.	.	.	.	.	.	.
!	!	!LO:LB:g=original	!	!	!	!	!	!	!	!	!	!	!	!	!	!	!	!	!	!	!	!	!	!	!
=12	=12	=12	=12	=12	=12	=12	=12	=12	=12	=12	=12	=12	=12	=12	=12	=12	=12	=12	=12	=12	=12	=12	=12	=12	=12
*tremolo	*	*tremolo	*	*	*	*tremolo	*	*	*	*	*	*	*	*	*	*	*	*	*	*	*	*	*	*	*
8AA\L	.	8a\L	.	8a/L	.	8cc\L	.	2.c\	-re	.	2.r	.	.	2.r	.	2.r	.	.	2.r	.	2.r	2.r	.	2.r	.
8AA\	.	8a\	.	8a/	.	8cc\	.	.	.	.	.	.	.	.	.	.	.	.	.	.	.	.	.	.	.
8AA\	.	8a\	.	8a/	.	8cc\	.	.	.	.	.	.	.	.	.	.	.	.	.	.	.	.	.	.	.
*	*	*Xtremolo	*	*	*	*	*	*	*	*	*	*	*	*	*	*	*	*	*	*	*	*	*	*	*
8AA\J	.	8a\J	.	8a/	.	8cc\	.	.	.	.	.	.	.	.	.	.	.	.	.	.	.	.	.	.	.
*Xtremolo	*	*	*	*	*	*	*	*	*	*	*	*	*	*	*	*	*	*	*	*	*	*	*	*	*
8FF\L	.	8f\L	.	8a/	.	8cc\	.	.	.	.	.	.	.	.	.	.	.	.	.	.	.	.	.	.	.
8FF\J	.	8f\J	.	8a/J	.	8cc\J	.	.	.	.	.	.	.	.	.	.	.	.	.	.	.	.	.	.	.
*	*	*	*	*	*	*Xtremolo	*	*	*	*	*	*	*	*	*	*	*	*	*	*	*	*	*	*	*
=13	=13	=13	=13	=13	=13	=13	=13	=13	=13	=13	=13	=13	=13	=13	=13	=13	=13	=13	=13	=13	=13	=13	=13	=13	=13
!LO:TX:t=P:problem=mixed beam	!	!	!	!	!	!	!	!	!	!	!	!	!	!	!	!	!	!	!	!	!	!	!	!	!
8DD\L	.	4f\	.	8a/L	.	8cc\L	.	8c\L	no-	.	2.r	.	.	2.r	.	2.r	.	.	2.r	.	2.r	2.r	.	2.r	.
8DD\	.	.	.	8b/J	.	8dd\J	.	8d\J	.	.	.	.	.	.	.	.	.	.	.	.	.	.	.	.	.
.	.	.	.	.	.	.	.	8qd/	.	.	.	.	.	.	.	.	.	.	.	.	.	.	.	.	.
!	!	!	!	!	!	!	!	!LO:LB:g=original	!	!	!	!	!	!	!	!	!	!	!	!	!	!	!	!	!
8EE\	.	4e\	.	4a/	.	4cc\	.	4c\	.	.	.	.	.	.	.	.	.	.	.	.	.	.	.	.	.
8EE\	.	.	.	.	.	.	.	.	.	.	.	.	.	.	.	.	.	.	.	.	.	.	.	.	.
8EEE/	.	4e\	.	4g#X/	.	4b\	.	4B\	.	.	.	.	.	.	.	.	.	.	.	.	.	.	.	.	.
8EEE/J	.	.	.	.	.	.	.	.	.	.	.	.	.	.	.	.	.	.	.	.	.	.	.	.	.
=14	=14	=14	=14	=14	=14	=14	=14	=14	=14	=14	=14	=14	=14	=14	=14	=14	=14	=14	=14	=14	=14	=14	=14	=14	=14
4AAA/	.	4e\	.	4a/	.	4a/	.	4A\	-biſ	.	2.r	.	.	2.r	.	2.r	.	.	2.r	.	2.r	2.r	.	2.r	.
!	!LO:DY:a:t=pp.	!	!	!	!	!	!	!	!	!	!	!	!	!	!	!	!	!	!	!	!	!	!	!	!
4AA\	pp	4r	.	4r	.	4r	.	4r	.	.	.	.	.	.	.	.	.	.	.	.	.	.	.	.	.
4C#X\	.	4r	.	4r	.	4r	.	4r	.	.	.	.	.	.	.	.	.	.	.	.	.	.	.	.	.
=15	=15	=15	=15	=15	=15	=15	=15	=15	=15	=15	=15	=15	=15	=15	=15	=15	=15	=15	=15	=15	=15	=15	=15	=15	=15
!	!	!	!	!	!	!LO:TX:a:t=4	!	!LO:TX:a:t=4	!	!	!	!	!	!	!	!	!	!	!	!	!	!	!	!	!
4D\	.	2.r	.	2.r	.	2.r	.	2.r	.	.	2.r	.	.	2.r	.	2.r	.	.	2.r	.	2.r	2.r	.	2.r	.
4FF\	.	.	.	.	.	.	.	.	.	.	.	.	.	.	.	.	.	.	.	.	.	.	.	.	.
4DD\	.	.	.	.	.	.	.	.	.	.	.	.	.	.	.	.	.	.	.	.	.	.	.	.	.
=16	=16	=16	=16	=16	=16	=16	=16	=16	=16	=16	=16	=16	=16	=16	=16	=16	=16	=16	=16	=16	=16	=16	=16	=16	=16
4GG\	.	2.r	.	2.r	.	2.r	.	2.r	.	.	2.r	.	.	2.r	.	2.r	.	.	2.r	.	2.r	2.r	.	2.r	.
4GG\	.	.	.	.	.	.	.	.	.	.	.	.	.	.	.	.	.	.	.	.	.	.	.	.	.
4BB\	.	.	.	.	.	.	.	.	.	.	.	.	.	.	.	.	.	.	.	.	.	.	.	.	.
=17	=17	=17	=17	=17	=17	=17	=17	=17	=17	=17	=17	=17	=17	=17	=17	=17	=17	=17	=17	=17	=17	=17	=17	=17	=17
4C\	.	2.r	.	2.r	.	2.r	.	2.r	.	.	2.r	.	.	2.r	.	2.r	.	.	2.r	.	2.r	2.r	.	2.r	.
4r	.	.	.	.	.	.	.	.	.	.	.	.	.	.	.	.	.	.	.	.	.	.	.	.	.
4EE\	.	.	.	.	.	.	.	.	.	.	.	.	.	.	.	.	.	.	.	.	.	.	.	.	.
=18	=18	=18	=18	=18	=18	=18	=18	=18	=18	=18	=18	=18	=18	=18	=18	=18	=18	=18	=18	=18	=18	=18	=18	=18	=18
4FF\	.	2.r	.	2.r	.	2.r	.	2.r	.	.	2.r	.	.	2.r	.	2.r	.	.	2.r	.	2.r	2.r	.	2.r	.
4GG\	.	.	.	.	.	.	.	.	.	.	.	.	.	.	.	.	.	.	.	.	.	.	.	.	.
4GGG/	.	.	.	.	.	.	.	.	.	.	.	.	.	.	.	.	.	.	.	.	.	.	.	.	.
=19	=19	=19	=19	=19	=19	=19	=19	=19	=19	=19	=19	=19	=19	=19	=19	=19	=19	=19	=19	=19	=19	=19	=19	=19	=19
!LO:TX:t=P:problem=mixed beam	!	!LO:TX:a:t=Tutti	!	!	!	!	!	!	!	!	!	!	!	!	!	!	!	!	!	!	!	!	!	!	!
*	*	*tremolo	*	*	*	*	*	*	*	*	*	*	*	*	*	*	*	*	*	*	*	*	*	*	*
!	!	!	!LO:DY:a	!LO:TX:a:t=T.	!LO:DY:a	!LO:TX:a:t=T&colon;	!LO:DY:a:t=f&colon;	!LO:TX:a:t=T.	!	!	!	!	!	!LO:TX:a:t=T.	!	!	!	!	!	!	!	!	!	!	!LO:DY:a:t=f&colon;
!	!LO:DY:a:t=f&colon;	!	!	!	!	!	!	!	!	!	!	!	!	!	!	!	!	!	!	!	!	!	!	!	!
8CC/L	f	8g\L	f	8cc\L	f	8cc\L	f	2c\	A-	.	2c\	A-	.	2g\	A-	2ee\	A-	.	4cc\	.	4ee\	2cc\	.	2ee\	f
8C\J	.	8g\	.	8cc\	.	8ee\	.	.	.	.	.	.	.	.	.	.	.	.	.	.	.	.	.	.	.
*tremolo	*	*	*	*	*	*	*	*	*	*	*	*	*	*	*	*	*	*	*tremolo	*	*tremolo	*	*	*	*
8C\L	.	8g\	.	8cc\	.	8ee\	.	.	.	.	.	.	.	.	.	.	.	.	8cc\L	.	8ee\L	.	.	.	.
8C\	.	8g\	.	8cc\	.	8ee\	.	.	.	.	.	.	.	.	.	.	.	.	8cc\	.	8ee\	.	.	.	.
!	!	!	!	!	!	!	!	!	!	!	!LO:TX:a:t=T.	!	!	!	!	!	!	!	!	!	!	!	!	!	!
8C\	.	8g\	.	8cc\	.	8ee\	.	4c\	-gnuſ	.	4c\	-gnuſ	.	4g\	-Gnus	4ee\	-gnus	.	8cc\	.	8ee\	4cc\	.	4ee\	.
8C\J	.	8g\J	.	8cc\J	.	8ee\J	.	.	.	.	.	.	.	.	.	.	.	.	8cc\J	.	8ee\J	.	.	.	.
*	*	*	*	*	*	*	*	*	*	*	*	*	*	*	*	*	*	*	*Xtremolo	*	*Xtremolo	*	*	*	*
=20	=20	=20	=20	=20	=20	=20	=20	=20	=20	=20	=20	=20	=20	=20	=20	=20	=20	=20	=20	=20	=20	=20	=20	=20	=20
*	*	*	*	*tremolo	*	*tremolo	*	*	*	*	*	*	*	*	*	*	*	*	*	*	*	*	*	*	*
8BB-X\L	.	8g\L	.	8cc\L	.	8ee\L	.	4B-X\	De-	.	4c\	De-	.	4g\	De-	4ee\	De-	.	4cc\	.	4ee\	4cc\	.	4ee\	.
8BB-\	.	8g\	.	8cc\	.	8ee\	.	.	.	.	.	.	.	.	.	.	.	.	.	.	.	.	.	.	.
8BB-\	.	8g\	.	8cc\	.	8ee\	.	4B-\	-i	.	4c\	-i	.	4g\	-i	4ee\	-i	.	4cc\	.	4ee\	4cc\	.	4ee\	.
8BB-\	.	8g\	.	8cc\	.	8ee\	.	.	.	.	.	.	.	.	.	.	.	.	.	.	.	.	.	.	.
8BB-\	.	8g\	.	8cc\	.	8ee\	.	4B-\	qui	.	4c\	qui	.	4g\	qui	4ee\	qui	.	4cc\	.	4ee\	4cc\	.	4ee\	.
8BB-\J	.	8g\J	.	8cc\J	.	8ee\J	.	.	.	.	.	.	.	.	.	.	.	.	.	.	.	.	.	.	.
=21	=21	=21	=21	=21	=21	=21	=21	=21	=21	=21	=21	=21	=21	=21	=21	=21	=21	=21	=21	=21	=21	=21	=21	=21	=21
8AA\L	.	8f\L	.	8cc\L	.	8ff\L	.	4A\	tol-	.	4c\	tol-	.	4f\	tol-	4ff\	tol-	.	8cc\	.	4ff\	4cc\	.	4ff\	.
8AA\	.	8f\	.	8cc\	.	8ff\	.	.	.	.	.	.	.	.	.	.	.	.	8r	.	.	.	.	.	.
8AA\	.	8f\	.	8cc\	.	8ff\	.	4A\	-liſ	.	4c\	-liſ	.	4f\	-liſ	4ff\	-lis	.	4r	.	4r	4cc\	.	4ff\	.
8AA\	.	8f\	.	8cc\	.	8ff\	.	.	.	.	.	.	.	.	.	.	.	.	.	.	.	.	.	.	.
8AA\	.	8f\	.	8cc\	.	8ff\	.	4A\	pec-	.	4c\	pec-	.	4a\	pec-	4ff\	pec-	.	4r	.	4r	4cc\	.	4ff\	.
8AA\J	.	8f\J	.	8cc\J	.	8ff\J	.	.	.	.	.	.	.	.	.	.	.	.	.	.	.	.	.	.	.
=22	=22	=22	=22	=22	=22	=22	=22	=22	=22	=22	=22	=22	=22	=22	=22	=22	=22	=22	=22	=22	=22	=22	=22	=22	=22
8AA\L	.	8d\L	.	8cc\L	.	8ff#X\L	.	2A\	-ca-	.	2d\	-ca-	.	2cc\	-ca-	2ff#X\	-ca-	.	4dd\	.	4dd\	2cc\	.	2ff#X\	.
8AA\	.	8d\	.	8cc\	.	8ff#\	.	.	.	.	.	.	.	.	.	.	.	.	.	.	.	.	.	.	.
*	*	*	*	*	*	*	*	*	*	*	*	*	*	*	*	*	*	*	*tremolo	*	*tremolo	*	*	*	*
8AA\	.	8d\	.	8cc\	.	8ff#\	.	.	.	.	.	.	.	.	.	.	.	.	8dd\L	.	8dd\L	.	.	.	.
8AA\	.	8d\	.	8cc\	.	8ff#\	.	.	.	.	.	.	.	.	.	.	.	.	8dd\	.	8dd\	.	.	.	.
8AA\	.	8d\	.	8cc\	.	8ff#\	.	4A\	-ta	.	4d\	-ta	.	4cc\	-ta	4ff#\	-ta	.	8dd\	.	8dd\	4cc\	.	4ff#\	.
8AA\J	.	8d\J	.	8cc\J	.	8ff#\J	.	.	.	.	.	.	.	.	.	.	.	.	8dd\J	.	8dd\J	.	.	.	.
*	*	*	*	*	*	*	*	*	*	*	*	*	*	*	*	*	*	*	*Xtremolo	*	*Xtremolo	*	*	*	*
=23	=23	=23	=23	=23	=23	=23	=23	=23	=23	=23	=23	=23	=23	=23	=23	=23	=23	=23	=23	=23	=23	=23	=23	=23	=23
8GG\L	.	8d\L	.	8b\L	.	8gg\L	.	2G\	mun-	.	2d\	mun-	.	2b\	mun-	2gg\	mun-	.	4g/	.	4dd\	2b\	.	2gg\	.
8GG\	.	8d\	.	8b\	.	8gg\	.	.	.	.	.	.	.	.	.	.	.	.	.	.	.	.	.	.	.
*	*	*	*	*	*	*	*	*	*	*	*	*	*	*	*	*	*	*	*tremolo	*	*tremolo	*	*	*	*
8GG\	.	8d\	.	8b\	.	8gg\	.	.	.	.	.	.	.	.	.	.	.	.	8g/L	.	8dd\L	.	.	.	.
8GG\	.	8d\	.	8b\	.	8gg\	.	.	.	.	.	.	.	.	.	.	.	.	8g/	.	8dd\	.	.	.	.
8GG\	.	8d\	.	8b\	.	8gg\	.	4G\	-di	.	4d\	-di	.	4b\	-di	4gg\	-di	.	8g/	.	8dd\	4b\	.	4gg\	.
8GG\J	.	8d\J	.	8b\J	.	8gg\J	.	.	.	.	.	.	.	.	.	.	.	.	8g/J	.	8dd\J	.	.	.	.
*	*	*	*	*	*	*	*	*	*	*	*	*	*	*	*	*	*	*	*Xtremolo	*	*Xtremolo	*	*	*	*
=24	=24	=24	=24	=24	=24	=24	=24	=24	=24	=24	=24	=24	=24	=24	=24	=24	=24	=24	=24	=24	=24	=24	=24	=24	=24
8GG\L	.	8d\L	.	8dd\L	.	8gg\L	.	4G\	tol-	.	4B\	tol-	.	4g\	tol-	4dd\	tol-	.	4g/	.	4dd\	4b\	.	4gg\	.
8GG\	.	8d\	.	8dd\	.	8gg\	.	.	.	.	.	.	.	.	.	.	.	.	.	.	.	.	.	.	.
!	!	!	!	!	!	!	!	!LO:SIC:v:s=4G\	!	!	!	!	!	!	!	!	!	!	!	!	!	!	!	!	!
8GG\	.	8d\	.	8dd\	.	8gg\	.	4F\	-liſ	.	4B\	-liſ	.	4g\	-liſ	4dd\	-lis	.	4g/	.	4dd\	4b\	.	4gg\	.
8GG\J	.	8d\	.	8dd\	.	8gg\J	.	.	.	.	.	.	.	.	.	.	.	.	.	.	.	.	.	.	.
*Xtremolo	*	*	*	*	*	*Xtremolo	*	*	*	*	*	*	*	*	*	*	*	*	*	*	*	*	*	*	*
*	*	*	*	*	*	*	*	*	*	*	*	*	*	*	*	*custos:ee	*	*	*	*	*	*	*	*	*
!LO:LB:g=original	!	!	!	!	!	!	!	!	!	!	!	!	!	!	!	!	!	!	!	!	!	!	!	!	!
8FF\L	.	8d\	.	8dd\	.	8bb\L	.	4F\	pec-	.	4B\	pec-	.	4g\	pec-	4dd\	pec-	.	4g/	.	4dd\	4dd\	.	4bb\	.
*	*	*	*	*	*	*custos:ccc	*	*	*	*	*	*	*	*	*	*	*	*	*	*	*	*	*	*	*
8FF\J	.	8d\J	.	8dd\J	.	8bb\J	.	.	.	.	.	.	.	.	.	.	.	.	.	.	.	.	.	.	.
!	!	!	!	!	!	!LO:LB:g=original	!	!	!	!	!	!	!	!	!	!LO:LB:g=original	!	!	!	!	!	!	!	!	!
=25	=25	=25	=25	=25	=25	=25	=25	=25	=25	=25	=25	=25	=25	=25	=25	=25	=25	=25	=25	=25	=25	=25	=25	=25	=25
*tremolo	*	*	*	*	*	*	*	*	*	*	*	*	*	*	*	*	*	*	*	*	*	*	*	*	*
*	*	*	*	*	*	*	*	*custos:E	*	*	*	*	*	*	*	*	*	*	*	*	*	*	*	*	*
8EE\L	.	8e\L	.	8gg\L	.	8ccc\L	.	2E\	-ca-	.	2c\	-ca-	.	2g\	-ca-	2ee\	-ca-	.	4e/	.	4cc\	2ee\	.	2ccc\	.
8EE\	.	8e\	.	8gg\	.	8ccc\	.	.	.	.	.	.	.	.	.	.	.	.	.	.	.	.	.	.	.
8EE\	.	8e\	.	8gg\	.	8ccc\	.	.	.	.	.	.	.	.	.	.	.	.	4r	.	4r	.	.	.	.
8EE\	.	8e\	.	8gg\	.	8ccc\	.	.	.	.	.	.	.	.	.	.	.	.	.	.	.	.	.	.	.
!	!	!	!	!	!	!	!	!LO:LB:g=original	!	!	!	!	!	!	!	!	!	!	!	!	!	!	!	!	!
8EE\	.	8e\	.	8gg\	.	8ccc\	.	4E\	-ta	.	4c\	-ta	.	4g\	-ta	4ee\	-ta	.	4cc\	.	4ee\	4ee\	.	4ccc\	.
8EE\J	.	8e\J	.	8gg\J	.	8ccc\J	.	.	.	.	.	.	.	.	.	.	.	.	.	.	.	.	.	.	.
!	!	!	!	!LO:LB:g=original	!	!	!	!	!	!	!	!	!	!	!	!	!	!	!	!	!	!	!	!	!
=26	=26	=26	=26	=26	=26	=26	=26	=26	=26	=26	=26	=26	=26	=26	=26	=26	=26	=26	=26	=26	=26	=26	=26	=26	=26
8DD/L	.	8d\L	.	8ff\L	.	4ccc\	.	2.D/	mun-	.	4c\	mun-	.	2.g\	mun-	2.ffn\	mun-	.	2cc\	.	2.ff\	2ff\	.	4ccc\	.
8DD/	.	8d\	.	8ff\	.	.	.	.	.	.	.	.	.	.	.	.	.	.	.	.	.	.	.	.	.
8DD/	.	8d\	.	8ff\	.	8bb\L	.	.	.	.	8B\L	.	.	.	.	.	.	.	.	.	.	.	.	8bb\L	.
8DD/	.	8d\J	.	8ff\	.	8aa\J	.	.	.	.	8A\J	.	.	.	.	.	.	.	.	.	.	.	.	8aa\J	.
*	*	*Xtremolo	*	*	*	*	*	*	*	*	*	*	*	*	*	*	*	*	*	*	*	*	*	*	*
8DD/	.	8g\L	.	8ff\	.	4bb\	.	.	.	.	4B\	.	.	.	.	.	.	.	4dd\	.	.	4ff\	.	4bb\	.
8DD/J	.	8g\J	.	8ff\J	.	.	.	.	.	.	.	.	.	.	.	.	.	.	.	.	.	.	.	.	.
*Xtremolo	*	*	*	*	*	*	*	*	*	*	*	*	*	*	*	*	*	*	*	*	*	*	*	*	*
=27	=27	=27	=27	=27	=27	=27	=27	=27	=27	=27	=27	=27	=27	=27	=27	=27	=27	=27	=27	=27	=27	=27	=27	=27	=27
*	*	*	*	*	*	*	*	*	*	*	*	*	*	*custos:a	*	*	*	*	*custos:cc	*	*	*	*	*	*
!LO:TX:t=P:problem=mixed beam	!	!	!	!	!	!	!	!	!	!	!	!	!	!	!	!	!	!	!	!	!	!	!	!	!
8CC/L	.	8g\L	.	8ee\L	.	4ccc\	.	4C/	-di	.	4c\	-di	.	4g\	-di	4ee\	-di	.	4cc\	.	4ee\	4ee\	.	4ccc\	.
8C\J	.	8g\	.	8ee\	.	.	.	.	.	.	.	.	.	.	.	.	.	.	.	.	.	.	.	.	.
*tremolo	*	*	*	*	*	*	*	*	*	*	*	*	*	*	*	*	*	*	*tremolo	*	*tremolo	*	*	*	*
!	!	!	!	!	!	!	!	!	!	!	!	!	!	!LO:LB:g=original	!	!	!	!	!LO:LB:g=original	!	!	!	!	!	!
8C\L	.	8a\	.	8ee\	.	8aa\L	.	4c\	mi-	.	4c\	mi-	.	4a\	mi-	4ee\	mi-	.	8cc\L	.	8ee\L	4ee\	.	4aa\	.
8C\	.	8a\	.	8ee\	.	8aa\	.	.	.	.	.	.	.	.	.	.	.	.	8cc\	.	8ee\	.	.	.	.
8C\	.	8a\	.	8ee\	.	8aa\	.	4c\	-ſe-	.	4c\	-ſe-	.	4a\	-ſe-	4ee\	-se-	.	8cc\	.	8ee\	4ee\	.	4aa\	.
8C\J	.	8a\J	.	8ee\J	.	8aa\J	.	.	.	.	.	.	.	.	.	.	.	.	8cc\J	.	8ee\J	.	.	.	.
*	*	*	*	*	*	*	*	*	*	*	*	*	*	*	*	*	*	*	*Xtremolo	*	*Xtremolo	*	*	*	*
!	!	!	!	!	!	!	!	!	!	!	!	!	!	!	!	!	!	!	!	!	!LO:LB:g=original	!	!	!	!
=28	=28	=28	=28	=28	=28	=28	=28	=28	=28	=28	=28	=28	=28	=28	=28	=28	=28	=28	=28	=28	=28	=28	=28	=28	=28
*	*	*tremolo	*	*	*	*	*	*	*	*	*	*	*	*	*	*	*	*	*tremolo	*	*	*	*	*	*
8C\L	.	8a\L	.	8dd\L	.	8ff#X\L	.	2c\	-re-	.	2d\	-re-	.	2f#X\	-re-	2dd\	-re-	.	8dd\L	.	2ff#\	2dd\	.	2ff#X\	.
8C\	.	8a\	.	8dd\	.	8ff#\	.	.	.	.	.	.	.	.	.	.	.	.	8dd\	.	.	.	.	.	.
8C\	.	8a\	.	8dd\	.	8ff#\	.	.	.	.	.	.	.	.	.	.	.	.	8dd\	.	.	.	.	.	.
8C\J	.	8a\J	.	8dd\	.	8ff#\	.	.	.	.	.	.	.	.	.	.	.	.	8dd\	.	.	.	.	.	.
*Xtremolo	*	*Xtremolo	*	*	*	*	*	*	*	*	*	*	*	*	*	*	*	*	*	*	*	*	*	*	*
*	*	*	*	*	*	*	*	*	*	*	*	*	*	*	*	*	*	*	*	*	*	*	*	*custos:gg	*
!	!	!	!	!	!	!	!	!	!	!	!LO:LB:g=original	!	!	!	!	!	!	!	!	!	!	!	!	!	!
8BB\L	.	8g\L	.	8dd\	.	8gg\	.	4B\	-re	.	4d\	-re	.	4g\	-re	4dd\	-re	.	8dd\	.	4gg\	4dd\	.	4gg\	.
8BB\J	.	8g\J	.	8dd\J	.	8gg\J	.	.	.	.	.	.	.	.	.	.	.	.	8dd\J	.	.	.	.	.	.
*	*	*	*	*	*	*	*	*	*	*	*	*	*	*	*	*	*	*	*Xtremolo	*	*	*	*	*	*
!	!	!	!	!	!	!	!	!	!	!	!	!	!	!	!	!	!	!	!	!	!	!	!	!LO:LB:g=original	!
=29	=29	=29	=29	=29	=29	=29	=29	=29	=29	=29	=29	=29	=29	=29	=29	=29	=29	=29	=29	=29	=29	=29	=29	=29	=29
*tremolo	*	*	*	*	*	*	*	*	*	*	*	*	*	*	*	*	*	*	*	*	*	*	*	*	*
8AA\L	.	8a\L	.	8cc\L	.	4gg\	.	2.A\	no-	.	2.d\	no-	.	4g\	no-	2.cc\	no-	.	2dd\	.	2gg\	2cc\	.	4gg\	.
8AA\	.	8a\	.	8cc\	.	.	.	.	.	.	.	.	.	.	.	.	.	.	.	.	.	.	.	.	.
8AA\	.	8d\	.	8cc\	.	8ff#X\L	.	.	.	.	.	.	.	8f#X\L	.	.	.	.	.	.	.	.	.	8ff#X\L	.
8AA\	.	8d\	.	8cc\	.	8ee\J	.	.	.	.	.	.	.	8e\J	.	.	.	.	.	.	.	.	.	8ee\J	.
8AA\	.	8d\	.	8cc\	.	4ff#\	.	.	.	.	.	.	.	4f#\	.	.	.	.	4dd\	.	4ff#X\	4cc\	.	4ff#\	.
*	*	*	*	*Xtremolo	*	*	*	*	*	*	*	*	*	*	*	*	*	*	*	*	*	*	*	*	*
8AA\J	.	8d\J	.	8cc\J	.	.	.	.	.	.	.	.	.	.	.	.	.	.	.	.	.	.	.	.	.
*Xtremolo	*	*	*	*	*	*	*	*	*	*	*	*	*	*	*	*	*	*	*	*	*	*	*	*	*
=30	=30	=30	=30	=30	=30	=30	=30	=30	=30	=30	=30	=30	=30	=30	=30	=30	=30	=30	=30	=30	=30	=30	=30	=30	=30
4GG\	.	4d\	.	4b\	.	4gg\	.	4G\	-biſ	.	4d\	-biſ	.	4g\	-biſ	8b\	-bis	.	4g/	.	4gg\	4b/	.	4gg\	.
.	.	.	.	.	.	.	.	.	.	.	.	.	.	.	.	4r	.	.	.	.	.	.	.	.	.
!	!	!	!	!	!	!	!	!	!	!	!	!	!LO:DY:a:t=p&colon;	!	!	!	!	!	!	!	!	!	!LO:DY:a	!	!
!	!	!	!	!	!	!	!	!	!	!	!	!	!	!	!	!	!	!	!	!	!	!	!	!	!LO:DY:a
!	!	!	!	!	!	!	!	!	!	!LO:DY:a:t=p&colon;	!	!	!	!	!	!	!	!	!	!	!	!	!	!	!
!	!	!	!	!	!	!	!LO:DY:a	!	!	!	!	!	!	!	!	!	!	!	!	!	!	!	!	!	!
!	!	!LO:LB:g=original	!	!	!LO:DY:a	!	!	!	!	!	!	!	!	!	!	!	!	!	!	!	!	!	!	!	!
!	!	!	!LO:DY:a:t=p&colon;	!	!	!	!	!	!	!	!	!	!	!	!	!	!	!	!	!	!	!	!	!	!
4GGG/	.	4G/	p	4B/	p	8r	p	4G\	mi-	p	4B\	mi-	p	4g\	mi-	.	.	.	4r	.	4r	4g/	p	4dd\	p
!	!	!	!	!	!	!	!	!	!	!	!	!	!	!	!	!	!	!LO:DY:a:t=p&colon;	!	!	!	!	!	!	!
.	.	.	.	.	.	8dd\L	.	.	.	.	.	.	.	.	.	8dd\L	mi-	p	.	.	.	.	.	.	.
4r	.	4G/	.	4B/	.	8ee\	.	4G\	-ſe-	.	4B\	-ſe-	.	4g\	-ſe-	8ee\J	.	.	4r	.	4r	4g/	.	8ee\L	.
.	.	.	.	.	.	8ffn\J	.	.	.	.	.	.	.	.	.	8ff\	-se-	.	.	.	.	.	.	8ffn\J	.
!	!	!	!	!	!	!	!	!	!	!	!	!	!	!	!	!	!	!	!	!	!	!LO:LB:g=original	!	!	!
=31	=31	=31	=31	=31	=31	=31	=31	=31	=31	=31	=31	=31	=31	=31	=31	=31	=31	=31	=31	=31	=31	=31	=31	=31	=31
!	!LO:DY:a:t=p&colon;	!	!	!	!	!	!	!	!	!	!	!	!	!	!	!	!	!	!	!LO:DY:a:t=p&colon;	!	!	!	!	!
4GGG/	p	4G/	.	4c/	.	8ee\L	.	2.G\	-re-	.	4c\	-re-	.	2.g\	-re-	(4ee\	-re-	.	4g/	p	4g/	4g/	.	4ee\	.
!	!	!	!	!	!	!LO:TX:a:t=t	!	!	!	!	!	!	!	!	!	!	!	!	!	!	!	!	!	!	!
.	.	.	.	.	.	8gg\J	.	.	.	.	.	.	.	.	.	.	.	.	.	.	.	.	.	.	.
!	!	!	!	!	!	!LO:TX:a:t=t	!	!	!	!	!	!	!	!	!	!	!	!	!	!	!	!	!	!	!
4r	.	4G/	.	8r	.	2b\	.	.	.	.	8r	.	.	.	.	2b\)	.	.	4r	.	4r	2g/	.	2b\	.
.	.	.	.	8d/L	.	.	.	.	.	.	8d\L	.	.	.	.	.	.	.	.	.	.	.	.	.	.
4r	.	4G/	.	8e/	.	.	.	.	.	.	8e\	.	.	.	.	.	.	.	4r	.	4r	.	.	.	.
.	.	.	.	8f/J	.	.	.	.	.	.	8f\J	.	.	.	.	.	.	.	.	.	.	.	.	.	.
=32	=32	=32	=32	=32	=32	=32	=32	=32	=32	=32	=32	=32	=32	=32	=32	=32	=32	=32	=32	=32	=32	=32	=32	=32	=32
!	!	!	!	!	!	!	!	!LO:TX:a:t=t	!	!	!	!	!	!	!	!	!	!	!	!	!	!	!	!	!
4GGG/	.	4G/	.	8e/L	.	4cc\	.	2.G\	-re	.	8e\L	.	.	2.g\	-re	4cc\	-re	.	4g/	.	4g/	4g/	.	4cc\	.
.	.	.	.	8g/J	.	.	.	.	.	.	8c\J	.	.	.	.	.	.	.	.	.	.	.	.	.	.
4r	.	4G/	.	4B/	.	8r	.	.	.	.	2B\	-re	.	.	.	8r	.	.	4r	.	4r	2g/	.	8r	.
.	.	.	.	.	.	8dd\L	.	.	.	.	.	.	.	.	.	8dd\L	no-	.	.	.	.	.	.	8dd\L	.
4r	.	4G/	.	4B/	.	8ee\	.	.	.	.	.	.	.	.	.	8ee\	.	.	4r	.	4r	.	.	8ee\	.
*	*	*	*	*	*	*	*	*	*	*	*	*	*	*	*	*custos:ee	*	*	*	*	*	*	*	*	*
.	.	.	.	.	.	8ff\J	.	.	.	.	.	.	.	.	.	8ff\J	.	.	.	.	.	.	.	8ff\J	.
!	!	!	!	!	!	!	!	!	!	!	!	!	!	!	!	!LO:LB:g=original	!	!	!	!	!	!	!	!	!
=33	=33	=33	=33	=33	=33	=33	=33	=33	=33	=33	=33	=33	=33	=33	=33	=33	=33	=33	=33	=33	=33	=33	=33	=33	=33
!	!	!	!	!	!	!	!	!LO:TX:a:t=t	!	!	!	!	!	!	!	!	!	!	!	!	!	!	!	!	!
4GGG/	.	4G/	.	4c/	.	4ee\	.	2.G\	no-	.	4c\	no-	.	4g\	no-	4ee\	.	.	4g/	.	4g/	4g/	.	4ee\	.
!	!	!	!	!	!	!LO:TX:a:t=t	!	!	!	!	!	!	!	!	!	!	!	!	!	!	!	!	!	!	!
4r	.	4G/	.	8c/L	.	2ff#X\	.	.	.	.	(4c\	.	.	2a\	.	2ff#X\	.	.	4r	.	4r	2cc\	.	2ff#X\	.
.	.	.	.	8A/	.	.	.	.	.	.	.	.	.	.	.	.	.	.	.	.	.	.	.	.	.
4r	.	4d\	.	8d/	.	.	.	.	.	.	4d\)	.	.	.	.	.	.	.	4r	.	4r	.	.	.	.
.	.	.	.	8c/J	.	.	.	.	.	.	.	.	.	.	.	.	.	.	.	.	.	.	.	.	.
!	!	!	!	!	!	!LO:LB:g=original	!	!	!	!	!	!	!	!	!	!	!	!	!	!	!	!	!	!	!
=34	=34	=34	=34	=34	=34	=34	=34	=34	=34	=34	=34	=34	=34	=34	=34	=34	=34	=34	=34	=34	=34	=34	=34	=34	=34
!	!	!	!	!LO:TX:t=P:problem=mixed beam	!	!	!	!	!	!	!	!	!	!	!	!	!	!	!	!	!	!	!	!	!
4GGG/	.	4d\	.	8B/L	.	8gg\L	.	4G\	-biſ	.	4d\	-biſ	.	4b\	-biſ	4gg\	-bis	.	4g/	.	4g/	4b\	.	4gg\	.
.	.	.	.	8ddd\	.	8ddd\	.	.	.	.	.	.	.	.	.	.	.	.	.	.	.	.	.	.	.
4r	.	4r	.	8bb\	.	8bb\	.	4r	.	.	4r	.	.	4r	.	4r	.	.	4r	.	4r	4r	.	4r	.
.	.	.	.	8gg\	.	8gg\	.	.	.	.	.	.	.	.	.	.	.	.	.	.	.	.	.	.	.
4r	.	4r	.	8dd\	.	8dd\	.	4r	.	.	4r	.	.	4r	.	4r	.	.	4r	.	4r	4r	.	4r	.
.	.	.	.	8b\J	.	8b\J	.	.	.	.	.	.	.	.	.	.	.	.	.	.	.	.	.	.	.
=35	=35	=35	=35	=35	=35	=35	=35	=35	=35	=35	=35	=35	=35	=35	=35	=35	=35	=35	=35	=35	=35	=35	=35	=35	=35
*	*	*^	*	*	*	*	*	*	*	*	*	*	*	*	*	*	*	*	*	*	*	*	*	*	*
!	!	!	!	!	!	!	!	!	!	!	!	!	!	!	!LO:TX:t=P:problem=brak dwóch taktów	!	!	!	!	!	!	!LO:TX:a:t=2	!	!	!	!
4GGG/	.	4d/	4B\	.	8g/L	.	8g/L	.	2.r	.	.	2.r	.	.	2.ryy	.	2.r	.	.	2.r	.	2.r	2.r	.	2.r	.
.	.	.	.	.	8dd/	.	8dd/	.	.	.	.	.	.	.	.	.	.	.	.	.	.	.	.	.	.	.
4r	.	4r	4ryy	.	8b/	.	8b/	.	.	.	.	.	.	.	.	.	.	.	.	.	.	.	.	.	.	.
.	.	.	.	.	8g/	.	8g/	.	.	.	.	.	.	.	.	.	.	.	.	.	.	.	.	.	.	.
4r	.	4r	4ryy	.	8d/	.	8d/	.	.	.	.	.	.	.	.	.	.	.	.	.	.	.	.	.	.	.
.	.	.	.	.	8B/J	.	8B/J	.	.	.	.	.	.	.	.	.	.	.	.	.	.	.	.	.	.	.
=36	=36	=36	=36	=36	=36	=36	=36	=36	=36	=36	=36	=36	=36	=36	=36	=36	=36	=36	=36	=36	=36	=36	=36	=36	=36	=36
!	!	!	!	!	!LO:TX:i:b:t=Sequitur Dona.	!	!LO:TX:i:b:t=Dona Sequitur	!	!LO:TX:i:b:t=Dona sequitur.	!	!	!	!	!	!	!	!	!	!	!	!	!	!	!	!	!
2GGG;/	.	2d/	2B\	.	2G/	.	2.G/	.	2.r	.	.	2.r	.	.	2.ryy	.	2.r	.	.	2.r	.	2.r	2.r	.	2.r	.
4r	.	4r	4ryy	.	4r	.	.	.	.	.	.	.	.	.	.	.	.	.	.	.	.	.	.	.	.	.
*	*	*v	*v	*	*	*	*	*	*	*	*	*	*	*	*	*	*	*	*	*	*	*	*	*	*	*
==	==	==	==	==	==	==	==	==	==	==	==	==	==	==	==	==	==	==	==	==	==	==	==	==	==
*-	*-	*-	*-	*-	*-	*-	*-	*-	*-	*-	*-	*-	*-	*-	*-	*-	*-	*-	*-	*-	*-	*-	*-	*-	*-
!!!system-decoration: [(g1)][(g2)][(g3)][(g4)]
!!!RDF**kern: > = above
!!!RDF**kern: < = below
!!!RDF**dynam: p = pia:
!!!RDF**dynam: f = for:
!!!ENC: Krzysztof Stępień
!!!END: 2020-09-18
!!!ENC: Kamil Watkowski
!!!END: 2022-02-02
!!!YEC: Copyright 2022 Narodowy Instytut Fryderyka Chopina (https://polishscores.org)
!!!YEM: License CC-BY-4.0 (https://creativecommons.org/licenses/by/4.0)
